!!!!SEGMENT: pl-wtm--r-1588--003_stefani-jozef--antiphonae-ad-vesperas-antiphona.krn
!!!cenid: 18xx:2345
!!!COM: Stefani, Józef
!!!COM-rismID:
!!!CDT: 1800/04/16-1876/03/19
!!!CNT: Polish
!!!OPR: Antiphonae ad Vesperas
!!!OTL: Antiphona
!!!OMV: 003
!!!PDT:
!!!AGN: Sacred; Vespers
!!!SMS-siglum: PL-Wtm
!!!SMS-shelfmark: R 1588
!!!SMS-shelfwork: 001-003 M
!!!SMS-variant:
!!!SMS-altvar:
!!!NIFC-rismSourceID: 1001115605
!!!NIFC-islandoraID: pl-wtm:27328
!!!URL-pdf-islandora: https://repozytorium.nifc.pl/islandora/object/pl-wtm%3A27328/datastream/PDF/view
!!!URL-scan: https://polish.musicsources.pl/pl/lokalizacje/galeria/rekopisy/6382 @EN{Scan on Polish Music Herritage in Open Access Website} @PL{Skany w portalu Dziedzictwo Muzyki Polskiej w otwartym dostępie}
!!!ONB-nifc: UWAGA: części: 4 Antyfony (001-004), Hymnus (005) i Magnificat (006)
!!!AIN: 1 empty 2 tenor
!!!key:
**kern	**text	**dynam	**kern	**kern	**text	**dynam
*part3	*part3	*part3	*part2	*part1	*part1	*part1
*staff3	*staff3	*	*staff2	*staff1	*staff1	*
*Iempty	*	*	*Itenor	*Itenor	*	*
*I"Basſo	*	*	*I"Tenore 2°.	*I"Tenore 1°.	*	*
*clefF4	*	*	*clefC4	*clefC4	*	*
*k[f#c#g#]	*	*	*k[f#c#g#]	*k[f#c#g#]	*	*
*A:	*	*	*A:	*A:	*	*
*M3/4	*	*	*M3/4	*M3/4	*	*
=1	=1	=1	=1	=1	=1	=1
*2\right	*	*	*2\right	*2\right	*	*
!	!	!	!	!LO:TX:t=P:problem=all\right&colon; global	!	!
!	!	!	!	!LO:TX:i:a:t=Adagio.	!	!
!	!	!	!	!LO:TX:i:a:t=Antiphona III	!	!LO:DY:a:rj
!LO:TX:t=P:problem=znaki przykluczowe poprzedzone kasownikiem BBn	!	!	!LO:TX:t=P:problem=znaki przykluczowe poprzedzone kasownikiem Bn	!LO:TX:t=P:problem=znaki przykluczowe poprzedzone kasownikiem Bn	!	!
2Fn\	Ni-	.	2A\	2cn\	Ni-	p
4F\	-gra	.	4A\	4A\	-gra	.
=2	=2	=2	=2	=2	=2	=2
2.E\	sum,	.	2.G#/	2.B\	sum,	.
=3	=3	=3	=3	=3	=3	=3
4r	.	.	4r	4r	.	.
!	!	!	!	!	!	!LO:HP:a
4A\	sed	.	4A\	4cn\	sed	<
4Fn\	for-	.	4A\	4d\	for-	[[
=4	=4	=4	=4	=4	=4	=4
!	!	!	!	!	!	!LO:HP:a
2E\	-mo-	.	2G#/	2e\	-mo-	>
4E\	-sa,	.	4G#/	4B\	-sa,	]]
=5	=5	=5	=5	=5	=5	=5
!	!	!	!	!	!	!LO:HP:a
4A\	fe-	.	4A\	4c#X\	fe-	<
4.A\	-lix	.	4.A\	4.c#\	-lix	.
8A\	Je-	.	8c#\	8e\	Je-	[
=6	=6	=6	=6	=6	=6	=6
*	*	*	*^	*	*	*
!	!	!	!	!	!	!	!LO:DY:a:rj
4.G#\	-ru-	.	4.d/	4.B\	4.f#\	-ru-	f
8G#\	-sa-	.	8d/	8B\	8f#\	-sa-	.
4A\	-lem:	.	4c#/	4c#\	4e\	-lem:	.
*	*	*	*v	*v	*	*	*
!!LO:LB:g=original
=7	=7	=7	=7	=7	=7	=7
(>8F#\L	fe-	.	(>8A\L	(>8e\L	fe-	.
8G#\J)	.	.	8B\J)	8d\J)	.	.
4A\	-lix	.	4A\	4c#\	-lix	.
4E\	Je-	.	4G#\	4B\	Je-	.
=8	=8	=8	=8	=8	=8	=8
8.AA/	-ru-	.	8.A\	8.c#\	-ru-	.
16AA/	-sa-	.	16A\	16c#\	-sa-	.
4AA/	-lem:	.	4A\	4c#\	-lem:	.
4r	.	.	4r	4r	.	.
=9	=9	=9	=9	=9	=9	=9
!	!	!	!	!LO:TX:i:a:t=dolce e	!	!
4F#\	i-	.	4A\	4d\	i-	.
4.G#\	-de-	.	4.B\	4.B\	-de-	.
!	!	!	!	!	!	!LO:DY:a:t=piano
8E\	-o	.	8G#\	8e\	-o	p
=10	=10	=10	=10	=10	=10	=10
4.A\	di-	.	4.A\	4.c#\	di-	.
8A\	-le-	.	8B\	8d\	-le-	.
4A\	-xit	.	4c#\	4e\	-xit	.
=11	=11	=11	=11	=11	=11	=11
!	!	!LO:DY:a:rj	!	!	!	!LO:DY:a:rj
(>2D\	me	f	(>2d\	(>2f#\	me	f
4F#\)	.	.	4A\)	4d\)	.	.
!!LO:LB:g=original
=12	=12	=12	=12	=12	=12	=12
2A\	.	.	2c#\	2e\	Rex,	.
!	!	!LO:DY:a:rj	!	!	!	!LO:DY:a:rj
4Gn\	.	p	4A\	4c#\	et	p
=13	=13	=13	=13	=13	=13	=13
[>2F#\	.	.	[>2A\	(>4e\	in-	.
.	.	.	.	4.d^>\)	.	.
8F#\]	.	.	8A\]	.	.	.
8Gn\	.	.	8A\	8c#\	-tro-	.
=14	=14	=14	=14	=14	=14	=14
4F#\	.	.	4A\	4e\	-du-	.
4.F#^>\	.	.	4.A\	4.d^>\	-xit	.
8D\	.	.	8F#/	8B\	me	.
=15	=15	=15	=15	=15	=15	=15
!	!	!	!LO:N:vis=8	!	!	!
4E\	.	.	4A\	4c#\	in	.
!	!	!	!	!	!	!LO:HP:a
8E\	.	.	8A\	8c#\	cu-	<
8E\	.	.	8B\	8d\	-bi-	.
8E\	.	.	8c#\	8e\	-cu-	.
8D#X\	.	.	8B#X\	8f#\	-lum	[
=16	=16	=16	=16	=16	=16	=16
!	!	!	!	!	!	!LO:HP:a
2.E\	.	.	(>8c#\L	(>8e\L	su-	>
.	.	.	8Bn\J	8d\J)	.	.
.	.	.	4A\	4c#\	.	.
.	.	.	4G#\)	4B\	.	]
!!LO:LB:g=original
=17	=17	=17	=17	=17	=17	=17
2A\	um.	.	2A\	2A\	-um	.
==	==	==	==	==	==	==
*-	*-	*-	*-	*-	*-	*-
!!!system-decoration: {s1,s2,s3}
!!!RDF**kern: | = vertical stroke
!!!RDF**kern: > = above
!!!RDF**kern: < = below
!!!EED: Antoni Szymański
!!!EEV: 2021-06-13
!!!ENC: Anastazja Marusiak
!!!END: 2021-06-04
